img/icons/lock.svg

<svg xmlns="http://www.w3.org/2000/svg" width="27" height="35" viewBox="0 0 27 35"><path d="M23.145 14.259V9.721c0-5.369-4.328-9.72-9.642-9.72-5.325 0-9.642 4.351-9.642 9.72v4.538C1.73 14.265.005 15.995.005 18.16v12.937c0 2.155 1.729 3.901 3.868 3.901h19.26c2.136 0 3.868-1.732 3.868-3.901V18.16c0-2.151-1.724-3.895-3.856-3.901zM5.147 9.714c0-4.647 3.741-8.418 8.356-8.418 4.605 0 8.356 3.769 8.356 8.418v4.545h-1.285V9.734c0-3.944-3.174-7.141-7.071-7.141-3.905 0-7.071 3.19-7.071 7.141v4.525H5.147V9.714zm14.141.009v4.536H7.718V9.723c0-3.23 2.59-5.834 5.785-5.834 3.188 0 5.785 2.612 5.785 5.834zm6.428 9.721v2.592h-11.57v1.296h11.57v2.593h-11.57v1.296h11.57v2.592h-11.57v1.296h11.57c-.004 1.434-1.153 2.593-2.568 2.593H3.858c-1.422 0-2.568-1.165-2.568-2.6V18.155c0-1.437 1.15-2.6 2.568-2.6h19.29c1.42 0 2.564 1.16 2.568 2.592h-11.57v1.297h11.57z" fill="#208BCE"/></svg>

<svg version="1.1" xmlns="http://www.w3.org/2000/svg" xmlns:xlink="http://www.w3.org/1999/xlink" width="27" height="35" viewBox="0 0 27 35"><path id="lock" d="M23.145,14.259 C23.145,14.259 23.145,9.721 23.145,9.721 C23.145,4.352 18.817,0.001 13.503,0.001 C8.178,0.001 3.861,4.352 3.861,9.721 C3.861,9.721 3.861,14.259 3.861,14.259 C1.730,14.265 0.005,15.995 0.005,18.160 C0.005,18.160 0.005,31.097 0.005,31.097 C0.005,33.252 1.734,34.998 3.873,34.998 C3.873,34.998 23.133,34.998 23.133,34.998 C25.269,34.998 27.001,33.266 27.001,31.097 C27.001,31.097 27.001,18.160 27.001,18.160 C27.001,16.009 25.277,14.265 23.145,14.259 zM5.147,9.714 C5.147,5.067 8.888,1.296 13.503,1.296 C18.108,1.296 21.859,5.065 21.859,9.714 C21.859,9.714 21.859,14.259 21.859,14.259 L20.574,14.259 C20.574,14.259 20.574,9.734 20.574,9.734 C20.574,5.790 17.400,2.593 13.503,2.593 C9.598,2.593 6.432,5.783 6.432,9.734 C6.432,9.734 6.432,14.259 6.432,14.259 L5.147,14.259 C5.147,14.259 5.147,9.714 5.147,9.714 zM19.288,9.723 C19.288,9.723 19.288,14.259 19.288,14.259 L7.718,14.259 C7.718,14.259 7.718,9.723 7.718,9.723 C7.718,6.493 10.308,3.889 13.503,3.889 C16.691,3.889 19.288,6.501 19.288,9.723 zM25.716,19.444 L25.716,22.036 L14.146,22.036 L14.146,23.332 L25.716,23.332 L25.716,25.925 L14.146,25.925 L14.146,27.221 L25.716,27.221 L25.716,29.813 L14.146,29.813 L14.146,31.109 C14.146,31.109 25.716,31.109 25.716,31.109 C25.712,32.543 24.563,33.702 23.148,33.702 C23.148,33.702 3.858,33.702 3.858,33.702 C2.436,33.702 1.290,32.537 1.290,31.102 C1.290,31.102 1.290,18.155 1.290,18.155 C1.290,16.718 2.440,15.555 3.858,15.555 C3.858,15.555 23.148,15.555 23.148,15.555 C24.568,15.555 25.712,16.715 25.716,18.147 C25.716,18.147 14.146,18.147 14.146,18.147 L14.146,19.444 L25.716,19.444 z" fill="#208BCE" /></svg>
